X: 1
T: Miss Ogilvie's Fancy
C: Robert Mackintosh
R: strathspey
B: RSCDS 20-__
Z: 1997 by John Chambers <jc:trillian.mit.edu>
M: C
L: 1/8
K: Bb
|: F \
| "Bb"B>c Bb "Eb"g/f/e/d/ "Bb"e/d/c/B/ | "F"A/B/c/B/ AF Fc c2 \
| "Bb"B>c Bb "Eb"g/f/e/d/ "Bb"e/d/c/B/ | "F"A/B/c/B/ AF "Eb"GB "Bb"B :|
|| F \
| "Bb"D>F BF "Eb"Ge "Bb"Fd | "Eb"E>F G/F/E/D/ "F7"Cc c2 \
| "Bb"D>F BF "Eb"Ge "Bb"Fd | "Eb"E>G "F7"F/E/D/C/ | "Bb"B,B B2 ||
|| "Bb"D>F BF "Eb"Ge "Bb"Fd | "Eb"Eg "Bb"Df "F7"Cc c2 \
| "Bb"B>d fb | "Eb"g/f/e/d "Bb"e/d/c/B/ | "F"A/B/c/B/ AF "Eb"GB "Bb"B |]
